X: 2
T: Kiss The Maid Behind The Barrel
Z: Phantom Button
S: https://thesession.org/tunes/676#setting13723
R: reel
M: 4/4
L: 1/8
K: Gmaj
DG~G2 AG ~G2 | DG~G2 cAFA | DG~G2 AG~G2 | defd cAFA |!DG~G2 AG ~G2 | DG~G2 cAFA | DG~G2 ~A3B | defd cAFA |!dg~g2 ag~g2 | dg~g2 agfe | df~f2 af~f2 | defd cAFA |!dg~g2| ag~g2 | ~a2ag ~f3g | afge fde^c | d2eg fdcA ||!G2dG BGdG | ~G2Bd cAFA | ~G3A ~B3c | defd cAFA |!G2BG dGBG | ~G2Bd cAFA | ~B3G ~A3B | defd cAFA ||!|: ~B3G ~A3G | BABc dedc | ~B3G ~A3B | defd cAFA :||!
